img/map/contacts/icons/instagram.svg

<svg fill="#ffffff" xmlns="http://www.w3.org/2000/svg"  viewBox="0 0 32 32" width="32px" height="32px"><path d="M 8 5 C 6.355469 5 5 6.355469 5 8 L 5 24 C 5 25.644531 6.355469 27 8 27 L 24 27 C 25.644531 27 27 25.644531 27 24 L 27 8 C 27 6.355469 25.644531 5 24 5 Z M 21 8 L 24 8 L 24 11 L 21 11 Z M 16 12 C 18.222656 12 20 13.777344 20 16 C 20 18.222656 18.222656 20 16 20 C 13.777344 20 12 18.222656 12 16 C 12 13.777344 13.777344 12 16 12 Z M 7 14 L 10.34375 14 C 10.121094 14.625 10 15.300781 10 16 C 10 19.300781 12.699219 22 16 22 C 19.300781 22 22 19.300781 22 16 C 22 15.300781 21.878906 14.625 21.65625 14 L 25 14 L 25 24 C 25 24.566406 24.566406 25 24 25 L 8 25 C 7.433594 25 7 24.566406 7 24 Z"/></svg>

<svg fill="#fff" xmlns="http://www.w3.org/2000/svg" width="32" height="32"><path d="M8 5C6.355 5 5 6.355 5 8v16c0 1.645 1.355 3 3 3h16c1.645 0 3-1.355 3-3V8c0-1.645-1.355-3-3-3zm13 3h3v3h-3zm-5 4c2.223 0 4 1.777 4 4s-1.777 4-4 4-4-1.777-4-4 1.777-4 4-4zm-9 2h3.344A5.96 5.96 0 0010 16c0 3.3 2.7 6 6 6s6-2.7 6-6c0-.7-.121-1.375-.344-2H25v10c0 .566-.434 1-1 1H8c-.566 0-1-.434-1-1z"/></svg>
